X:1
L:1/16
M:2/4
K:D
""^vgl. II, 132"" (3ABc | d2dd d2e2 | f2fg f2g2 | a2>d'2 a2>d'2 | abag fgfe | d2dd d2e2 | f2fg f2g2 | 
 afba gfed | [ce]2[ce][ce] [ce]2 :: (3Bcd | e2ef e2de | f2fg f2ef | d'2d'e' d'2c'd' | e'2e'e' e'4 | 
 b2b2 bd'c'b | abag f2g2 | fgab agfe | d2dd d2 :|
